X: 81
T: No_174_Mīde'_Burial_Song_(a).krn
%%abc-version 2.0
%%abcx-abcm2ps-target-version 5.9.1 (29 Sep 2008)
%%abc-creator hum2abc beta
%%abcx-conversion-date 2020/08/10 18:54:56
%%humdrum-veritas 3603931205
%%humdrum-veritas-data 2414244535
%%linebreak <none>
%%barnumbers 0
L: 1/8
M: 2/4
K: B clef=bass
[K:clef=bass][M:2/4]DDD2 ||  
[M:3/4]D6 ||  
[M:2/4]B,4- | 
B,4 | 
DDD2 ||  
[M:3/4]C6- ||  
[M:2/4]C2C/B,3/ | 
CCC2 ||  
[M:3/4]B,6- ||  
[M:2/4]B,2B,/G,3/ | 
G,G,G,2 | 
G,4- | 
G,4 | 
G,G,B,2 | 
B,4- | 
B,4 | 
CCC2 | 
C4- | 
C2B,2 | 
CCC2 | 
B,4- | 
B,2B,/G,3/ | 
G,G,G,2 | 
G,4- | 
G,2G,2 | 
D2D2 | 
B,4- | 
B,4 | 
DDD2 | 
C4- | 
C2C/B,3/ | 
CCC2 | 
B,4- | 
B,2B,/G,3/ | 
G,G,G,2 | 
G,4- | 
G,4 | 
G,G,B,2 | 
B,4- | 
B,4 | 
CCC2 | 
C4- | 
C2B,2 | 
CCC2 | 
B,4- | 
B,2B,/G,3/ | 
G,G,G,2 | 
G,4- | 
G,4 | 
G,G,G,2 | 
G,4- | 
G,2A,/G,3/ ||  
[M:3/4]G,G,G,4 ||  
[M:2/4]G,<D,D,2 |]  


